svgs/sharp-light/file-lock.svg

<svg xmlns="http://www.w3.org/2000/svg" viewBox="0 0 576 512"><!--! Font Awesome Pro 6.4.0 by @fontawesome - https://fontawesome.com License - https://fontawesome.com/license (Commercial License) Copyright 2023 Fonticons, Inc. --><path d="M208 192H320h32 32V152L232 0H32 0V32 480v32H32 320l0-32H32V32H192V176v16h16zM224 37.3L346.7 160H224V37.3zM464 224c26.5 0 48 21.5 48 48v48H416V272c0-26.5 21.5-48 48-48zm-80 48v48H352v32V480v32h32H544h32V480 352 320H544V272c0-44.2-35.8-80-80-80s-80 35.8-80 80zm0 80H544V480H384V352z"/></svg>

<svg xmlns="http://www.w3.org/2000/svg" viewBox="0 0 576 512"><!--! Font Awesome Pro 6.6.0 by @fontawesome - https://fontawesome.com License - https://fontawesome.com/license (Commercial License) Copyright 2024 Fonticons, Inc. --><path d="M208 192l112 0 32 0 32 0 0-40L232 0 32 0 0 0 0 32 0 480l0 32 32 0 288 0 0-32L32 480 32 32l160 0 0 144 0 16 16 0zM224 37.3L346.7 160 224 160l0-122.7zM464 224c26.5 0 48 21.5 48 48l0 48-96 0 0-48c0-26.5 21.5-48 48-48zm-80 48l0 48-32 0 0 32 0 128 0 32 32 0 160 0 32 0 0-32 0-128 0-32-32 0 0-48c0-44.2-35.8-80-80-80s-80 35.8-80 80zm0 80l160 0 0 128-160 0 0-128z"/></svg>
